X:508
T:Reel 508
M:4/4
K:Gmaj
L:1/8
g2| (3Bcd ge dcBc| (3BAG de d2ga|bc'bg fgaf|gedB G2:|gf|gfge fe'd'c'|bgfa gedB|gc'bb gc'd'c'|bgfa g2 (3def |gfgb c'bc'd'|bc'd'b  (3c'd'c' e'c'|d'bc'a bgaf|gfdB c2|
